X: 1
T: Pete Clark of Birnam
C: James Gray
R: jig
B: Alex & James Gray "Tweeddale Collection" v.48 #2,5
N: Tune for Machine Without Wheels
Z: 2017 John Chambers <jc:trillian.mit.edu>
M: C
L: 1/8
K: F
C |\
"F"Ffc AFC | "C"EFG "F"F2E | "Bb"DFB "F/a"CFA | "Gm"GAF "C"GEC |\
"F"Ffc AFC | "C"EFG "F"F2E | "Bb"DFB "C"ECc | "F"AFF F2 :|
F |\
"C"EFG C2B | "F"AGF "C"GEC | "Bb"DEF "F/a"CEF | "Gm"B,DB "C"AGF |\
"C"EFG C2B | "F"AGF "C"GEC | "Bb"B,DB "C"ECc | "F"AFF F2 ||
F |\
"C"EFG C2B | "F"AGF "C"GEC | "Bb"DEF "F"CEF | "Gm"B,DB "C"EGc |\
"F"Ffc AFC | "C"EFG "F"F2E | "Bb"DFB "C"ECc | "F"AFF F2 :|
